dist/svgs/team-medal.svg

<svg xmlns="http://www.w3.org/2000/svg" viewBox="0 0 512 512"><path d="M258 199q18 0 31-13t13-32q0-18-13-31t-31-13-31 13-13 31q0 19 13 32t31 13zm0-199q32 0 60 12t49 33 33 49 12 60q0 33-12 61t-33 49-49 33-60 12-60-12-49-33-33-49-12-61q0-32 12-60t33-49 49-33 60-12zm236 433l-106-16-55 93-71-159q48 0 88.5-22.5T417 271zM99 271q26 37 66.5 58.5T254 353l-71 159-55-93-106 16z"/></svg>

<?xml version="1.0" encoding="UTF-8" standalone="no"?><svg   xmlns:svg="http://www.w3.org/2000/svg"   xmlns="http://www.w3.org/2000/svg"   version="1.1"   width="512"   height="512"   viewBox="0 0 512 512">  <path     d="M258 199Q276 199 289 186T302 154Q302 136 289 123T258 110T227 123T214 154Q214 173 227 186T258 199zM258 0Q290 0 318 12T367 45T400 94T412 154Q412 187 400 215T367 264T318 297T258 309T198 297T149 264T116 215T104 154Q104 122 116 94T149 45T198 12T258 0zM494 433L388 417L333 510L262 351Q310 351 350.5 328.5T417 271zM99 271Q125 308 165.5 329.5T254 353L183 512L128 419L22 435z"     id="team-medal" /></svg>
